Numix/16/status/indicator-keyboard-Br-1.svg

<?xml version="1.0" encoding="UTF-8" standalone="no"?>
<svg
   xmlns:dc="http://purl.org/dc/elements/1.1/"
   xmlns:cc="http://creativecommons.org/ns#"
   xmlns:rdf="http://www.w3.org/1999/02/22-rdf-syntax-ns#"
   xmlns:svg="http://www.w3.org/2000/svg"
   xmlns="http://www.w3.org/2000/svg"
   xmlns:sodipodi="http://sodipodi.sourceforge.net/DTD/sodipodi-0.dtd"
   xmlns:inkscape="http://www.inkscape.org/namespaces/inkscape"
   viewBox="0 0 16 16"
   id="svg2"
   version="1.1"
   inkscape:version="0.91 r13725"
   sodipodi:docname="indicator-keyboard-Br-1.svg">
  <metadata
     id="metadata14">
    <rdf:RDF>
      <cc:Work
         rdf:about="">
        <dc:format>image/svg+xml</dc:format>
        <dc:type
           rdf:resource="http://purl.org/dc/dcmitype/StillImage" />
      </cc:Work>
    </rdf:RDF>
  </metadata>
  <defs
     id="defs12" />
  <sodipodi:namedview
     pagecolor="#ffffff"
     bordercolor="#666666"
     borderopacity="1"
     objecttolerance="10"
     gridtolerance="10"
     guidetolerance="10"
     inkscape:pageopacity="0"
     inkscape:pageshadow="2"
     inkscape:window-width="640"
     inkscape:window-height="480"
     id="namedview10"
     showgrid="false"
     inkscape:zoom="14.75"
     inkscape:cx="8"
     inkscape:cy="8"
     inkscape:window-x="65"
     inkscape:window-y="24"
     inkscape:window-maximized="0"
     inkscape:current-layer="svg2" />
  <path
     style="fill:#ececec;fill-opacity:1"
     d="M 1.5996094 0 C 0.71320937 2.9605947e-16 0 0.71320937 0 1.5996094 L 0 14.400391 C 2.9605947e-16 15.286791 0.71320937 16 1.5996094 16 L 14.400391 16 C 15.286791 16 16 15.286791 16 14.400391 L 16 1.5996094 C 16 0.71320937 15.286791 0 14.400391 0 L 1.5996094 0 z M 4.4121094 4.8046875 C 4.7481094 4.8046875 5.0652344 4.8327187 5.3652344 4.8867188 C 5.6712344 4.9407187 5.9380156 5.03025 6.1660156 5.15625 C 6.3940156 5.28225 6.5750313 5.4501562 6.7070312 5.6601562 C 6.8450313 5.8641563 6.9140625 6.1197812 6.9140625 6.4257812 C 6.9140625 6.7617812 6.8263438 7.0490625 6.6523438 7.2890625 C 6.4843437 7.5230625 6.25675 7.6853906 5.96875 7.7753906 C 6.14875 7.8173906 6.3148438 7.8770781 6.4648438 7.9550781 C 6.6148438 8.0330781 6.745375 8.1357187 6.859375 8.2617188 C 6.973375 8.3817188 7.0610937 8.5309375 7.1210938 8.7109375 C 7.1870937 8.8849375 7.2207031 9.0957969 7.2207031 9.3417969 C 7.2207031 9.9297971 6.9855781 10.379406 6.5175781 10.691406 C 6.0495781 10.997406 5.3276094 11.150391 4.3496094 11.150391 C 4.2476094 11.150391 4.1262812 11.144813 3.9882812 11.132812 C 3.8562813 11.126813 3.7182187 11.113703 3.5742188 11.095703 C 3.4362187 11.083703 3.3056875 11.068781 3.1796875 11.050781 C 3.0536875 11.026781 2.9454688 11.002516 2.8554688 10.978516 L 2.8554688 4.9765625 C 2.9634687 4.9465625 3.0828438 4.9222969 3.2148438 4.9042969 C 3.3468438 4.8802969 3.4811406 4.8616094 3.6191406 4.8496094 C 3.7631406 4.8316094 3.9012031 4.8204531 4.0332031 4.8144531 C 4.1712031 4.8084531 4.2981094 4.8046875 4.4121094 4.8046875 z M 4.4121094 5.3261719 C 4.1901094 5.3261719 4.0017031 5.3337031 3.8457031 5.3457031 C 3.6957031 5.3577031 3.5687969 5.372625 3.4667969 5.390625 L 3.4667969 7.5859375 L 4.6542969 7.5859375 C 4.8762969 7.5859375 5.0871563 7.5710156 5.2851562 7.5410156 C 5.4831562 7.5050156 5.6548281 7.4453281 5.7988281 7.3613281 C 5.9488281 7.2713281 6.0644375 7.1537656 6.1484375 7.0097656 C 6.2324375 6.8597656 6.2753906 6.6713594 6.2753906 6.4433594 C 6.2753906 6.2393594 6.230625 6.0676875 6.140625 5.9296875 C 6.050625 5.7856875 5.9199531 5.668125 5.7519531 5.578125 C 5.5899531 5.488125 5.3959687 5.426625 5.1679688 5.390625 C 4.9399688 5.348625 4.6881094 5.3261719 4.4121094 5.3261719 z M 10.080078 6.3535156 C 10.272078 6.3535156 10.453094 6.3684375 10.621094 6.3984375 C 10.795094 6.4284375 10.914469 6.4582812 10.980469 6.4882812 L 10.863281 6.9921875 C 10.815281 6.9681875 10.716406 6.9439219 10.566406 6.9199219 C 10.422406 6.8899219 10.230234 6.875 9.9902344 6.875 C 9.7382344 6.875 9.5349063 6.8936875 9.3789062 6.9296875 C 9.2289062 6.9656875 9.1300313 6.9955312 9.0820312 7.0195312 L 9.0820312 11.095703 L 8.4960938 11.095703 L 8.4960938 6.6582031 C 8.6460937 6.5922031 8.8531875 6.5269375 9.1171875 6.4609375 C 9.3811875 6.3889375 9.7020781 6.3535156 10.080078 6.3535156 z M 3.4667969 8.1074219 L 3.4667969 10.564453 C 3.5567969 10.576453 3.6910937 10.591375 3.8710938 10.609375 C 4.0510937 10.621375 4.2339219 10.628906 4.4199219 10.628906 C 4.6959219 10.628906 4.9646562 10.610219 5.2226562 10.574219 C 5.4866563 10.538219 5.7160625 10.472953 5.9140625 10.376953 C 6.1120625 10.280953 6.2725781 10.148469 6.3925781 9.9804688 C 6.5125781 9.8124687 6.5722656 9.5960312 6.5722656 9.3320312 C 6.5722656 9.0920313 6.5293125 8.8942813 6.4453125 8.7382812 C 6.3613125 8.5762813 6.2419375 8.449375 6.0859375 8.359375 C 5.9299375 8.263375 5.7377656 8.1981094 5.5097656 8.1621094 C 5.2877656 8.1261094 5.0396719 8.1074219 4.7636719 8.1074219 L 3.4667969 8.1074219 z M 12.876953 8.8417969 L 13.144531 8.8417969 L 13.144531 12.896484 L 12.765625 12.896484 L 12.765625 9.421875 C 12.722725 9.468675 12.665903 9.5157063 12.595703 9.5664062 C 12.529403 9.6171062 12.452987 9.66805 12.367188 9.71875 C 12.281387 9.76555 12.191256 9.812575 12.097656 9.859375 C 12.004056 9.902275 11.910006 9.9375437 11.816406 9.9648438 L 11.705078 9.671875 C 11.939078 9.5899751 12.148731 9.4880812 12.332031 9.3632812 C 12.515331 9.2345813 12.697553 9.0601969 12.876953 8.8417969 z "
     id="path4" />
</svg>

<svg xmlns="http://www.w3.org/2000/svg" viewBox="0 0 16 16">
 <path d="m 1.6 0 c -0.886 0 -1.6 0.713 -1.6 1.6 l 0 12.801 c 0 0.886 0.713 1.6 1.6 1.6 l 12.801 0 c 0.886 0 1.6 -0.713 1.6 -1.6 l 0 -12.801 c 0 -0.886 -0.713 -1.6 -1.6 -1.6 l -12.801 0 z m 2.813 4.805 c 0.336 0 0.653 0.028 0.953 0.082 c 0.306 0.054 0.573 0.144 0.801 0.27 c 0.228 0.126 0.409 0.294 0.541 0.504 c 0.138 0.204 0.207 0.46 0.207 0.766 c 0 0.336 -0.088 0.623 -0.262 0.863 c -0.168 0.234 -0.396 0.396 -0.684 0.486 c 0.18 0.042 0.346 0.102 0.496 0.18 c 0.15 0.078 0.281 0.181 0.395 0.307 c 0.114 0.12 0.202 0.269 0.262 0.449 c 0.066 0.174 0.1 0.385 0.1 0.631 c 0 0.588 -0.235 1.038 -0.703 1.35 c -0.468 0.306 -1.19 0.459 -2.168 0.459 c -0.102 0 -0.223 -0.006 -0.361 -0.018 c -0.132 -0.006 -0.27 -0.019 -0.414 -0.037 c -0.138 -0.012 -0.269 -0.027 -0.395 -0.045 c -0.126 -0.024 -0.234 -0.048 -0.324 -0.072 l 0 -6 c 0.108 -0.03 0.227 -0.054 0.359 -0.072 c 0.132 -0.024 0.266 -0.043 0.404 -0.055 c 0.144 -0.018 0.282 -0.029 0.414 -0.035 c 0.138 -0.006 0.265 -0.01 0.379 -0.01 z m 0 0.521 c -0.222 0 -0.41 0.008 -0.566 0.02 c -0.15 0.012 -0.277 0.027 -0.379 0.045 l 0 2.195 l 1.188 0 c 0.222 0 0.433 -0.015 0.631 -0.045 c 0.198 -0.036 0.37 -0.096 0.514 -0.18 c 0.15 -0.09 0.266 -0.208 0.35 -0.352 c 0.084 -0.15 0.127 -0.338 0.127 -0.566 c 0 -0.204 -0.045 -0.376 -0.135 -0.514 c -0.09 -0.144 -0.221 -0.262 -0.389 -0.352 c -0.162 -0.09 -0.356 -0.152 -0.584 -0.188 c -0.228 -0.042 -0.48 -0.064 -0.756 -0.064 z m 5.668 1.027 c 0.192 0 0.373 0.015 0.541 0.045 c 0.174 0.03 0.293 0.06 0.359 0.09 l -0.117 0.504 c -0.048 -0.024 -0.147 -0.048 -0.297 -0.072 c -0.144 -0.03 -0.336 -0.045 -0.576 -0.045 c -0.252 0 -0.455 0.019 -0.611 0.055 c -0.15 0.036 -0.249 0.066 -0.297 0.09 l 0 4.076 l -0.586 0 l 0 -4.437 c 0.15 -0.066 0.357 -0.131 0.621 -0.197 c 0.264 -0.072 0.585 -0.107 0.963 -0.107 z m -6.613 1.754 l 0 2.457 c 0.09 0.012 0.224 0.027 0.404 0.045 c 0.18 0.012 0.363 0.02 0.549 0.02 c 0.276 0 0.545 -0.019 0.803 -0.055 c 0.264 -0.036 0.493 -0.101 0.691 -0.197 c 0.198 -0.096 0.359 -0.228 0.479 -0.396 c 0.12 -0.168 0.18 -0.384 0.18 -0.648 c 0 -0.24 -0.043 -0.438 -0.127 -0.594 c -0.084 -0.162 -0.203 -0.289 -0.359 -0.379 c -0.156 -0.096 -0.348 -0.161 -0.576 -0.197 c -0.222 -0.036 -0.47 -0.055 -0.746 -0.055 l -1.297 0 z m 9.41 0.734 l 0.268 0 l 0 4.055 l -0.379 0 l 0 -3.475 c -0.043 0.047 -0.1 0.094 -0.17 0.145 c -0.066 0.051 -0.143 0.102 -0.229 0.152 c -0.086 0.047 -0.176 0.094 -0.27 0.141 c -0.094 0.043 -0.188 0.078 -0.281 0.105 l -0.111 -0.293 c 0.234 -0.082 0.444 -0.184 0.627 -0.309 c 0.183 -0.129 0.366 -0.303 0.545 -0.521 z" style="fill:#ececec;fill-opacity:1"/>
</svg>
